X:044
U: ~ = !turn!
%%topmargin 3cm
T:Dan the Cobbler
B:Traditional Irish Fiddle Tunes. Randy Miller and Jack Perron.
Z:Transcribed by Ralph Palmer
R:Jig
M:6/8
L:1/8
K:D
DFA B2A | def gfe | fdf ecA | BGB AFD |
DFA {Bc}B2A | def gfe | fdf ecA | [1 Add d3 :|] [2 Add d2 |
|: g | fad gad | daa agf | eg=c egc | egg gfe |
fef gfg | agf efg | fed cBA | Add d2 :|]
